X: 304
T: Frank Ferrell's No2
Q: 180
R: Jig
K: G
M: 6/8
L: 1/8
Bc^c|"G"dBd b>fa|g3 !breath!gBc|d^cd f2e|"D7"!breath!A3 A2B|cBc a2g|f=f^f f2e|
d^cd ed=c|"G"B3 B2c|"G"dBd b>fa|g3 !breath!gBc|"D7"!breath!A3 A2G|
F=F^F a2g|f=f^f f2e|d^cd bfa|"G"g3 g||:dc|BGG GBG|ADD DFA|
BGG GBd|gfg d2c|BGG GBG|ADD D2A|BdB cAF|G3 G:|]

%%newpage
%%textfont * 14
%%begintext justify
%%32 Bar Jigs
%%endtext
